svgs/microsoft_authenticator.svg

<svg width="192" height="192" viewBox="0 0 192 192" fill="none" xmlns="http://www.w3.org/2000/svg">
<path d="M96 62H68C50.3269 62 35.6111 76.4602 38.6984 93.8616C47.4967 143.453 75.9401 170 96 170" stroke="black" stroke-width="12" stroke-linecap="round" stroke-linejoin="round"/>
<path d="M96 62H124C141.673 62 156.389 76.4602 153.302 93.8616C144.503 143.453 116.06 170 96 170" stroke="black" stroke-width="12" stroke-linecap="round" stroke-linejoin="round"/>
<path fill-rule="evenodd" clip-rule="evenodd" d="M68 56C68 40.536 80.536 28 96 28C111.464 28 124 40.536 124 56C124 58.0595 123.778 60.0671 123.356 62H135.553C135.847 60.0428 136 58.0392 136 56C136 33.9086 118.091 16 96 16C73.9086 16 56 33.9086 56 56C56 58.0392 56.1526 60.0428 56.447 62H68.6444C68.2224 60.0671 68 58.0595 68 56Z" fill="black"/>
<path fill-rule="evenodd" clip-rule="evenodd" d="M67.6329 154.946C70.4174 141.836 82.0601 132 96 132C108.903 132 119.838 140.427 123.601 152.077L132.583 142.469C125.816 129.136 111.975 120 96 120C80.0775 120 66.2748 129.076 59.4838 142.338L65.5 152L67.6329 154.946Z" fill="black"/>
<circle cx="96" cy="94" r="14" stroke="black" stroke-width="12"/>
</svg>

<svg width="192" height="192" viewBox="0 0 192 192" fill="none" xmlns="http://www.w3.org/2000/svg"><path d="M96 62H68c-17.673 0-32.389 14.46-29.302 31.862C47.497 143.453 75.94 170 96 170M96 62h28c17.673 0 32.389 14.46 29.302 31.862C144.503 143.453 116.06 170 96 170" stroke="#000" stroke-width="12" stroke-linecap="round" stroke-linejoin="round"/><path fill-rule="evenodd" clip-rule="evenodd" d="M68 56c0-15.464 12.536-28 28-28s28 12.536 28 28c0 2.06-.222 4.067-.644 6h12.197c.294-1.957.447-3.96.447-6 0-22.091-17.909-40-40-40S56 33.909 56 56c0 2.04.153 4.043.447 6h12.197A28.105 28.105 0 0 1 68 56ZM67.633 154.946C70.417 141.836 82.06 132 96 132c12.903 0 23.838 8.427 27.601 20.077l8.982-9.608C125.816 129.136 111.975 120 96 120c-15.922 0-29.725 9.076-36.516 22.338L65.5 152l2.133 2.946Z" fill="#000"/><circle cx="96" cy="94" r="14" stroke="#000" stroke-width="12"/></svg>
